dance_pos = posj(80.95, -45.76, 104.68, 0, 31.8, 4.04)
set_velx(2400); set_accx(2000); begin_blend(30)

a =  posx(42.86, 308.8, 608.08, 80.95, 90.72, 4.04)
b = posx(42.86, 308.8, 687.99, 80.95, 90.72, -32.04)
c = posx(178.18, 252.84, 634.32, 53.45, 89.86, -7.05)
d = posx(178.18, 252.84, 690.63, 53.45, 89.86, -37.43)
e = posx(-159.25, 265.17, 634.32, 119.61, 89.86, -7.05)
f = posx(-159.25, 265.17, 693.93, 119.61, 89.86, -40.73)

pos = [dance_pos,
          posj(57.16, -44.33, 100.55, -6.68, 33.82, -1.5)
          ,posj(123.32, -44.33, 100.55, -6.68, 33.82, -1.5)] 
          
movej(posj(123.32, -44.33, 100.55, -6.68, 33.82, -1.5),30,30)

while 1:
    for i in range(3):
        if i in [1,2]: continue
        count = 0
        movej(pos[i],50,50)
        while count != 8:
            movel(a if i == 0 else c if i == 1 else e)
            movel(b if i == 0 else d if i == 1 else f)
            count += 1
        