a1 = posx(298.89, 300.09, 25, 34.19, 180, 31.53)
b1 = posx(259.02, 300.14, 24.99, 66.41, -179.99, 63.46)
c1 = posx(219.44, 300.6, 24.78, 83.43, -180, 80.33)
d1 = posx(299.4, 340.48, 25.25, 68.24, -180, 65.39)
e1 = posx(259.48, 339.9, 25.15, 59.02, -179.99, 56.01)
f1 = posx(219.92, 341.3, 24.92, 66.32, -180, 63.17)
g1 = posx(299.46, 381.49, 25.24, 51.14, -179.99, 48.14)
h1 = posx(259.43, 379.7, 25.3, 71.35, -179.99, 68.93)
i1 = posx(219.01, 381.25, 25.11, 66.64, -180, 63.46)

a2 = posx(-120.46, 301.17, 24.71, 122.33, -180, 118.72)
b2 = posx(-160.13, 301.76, 24.89, 96.88, 180, 93)
c2 = posx(-200.39, 302.7, 24.94, 122.53, -180, 118.71)
d2 = posx(-120.49, 342.45, 24.86, 88.1, -180, 84.21)
e2 = posx(-160.32, 340.45, 25.1, 116.46, -180, 112.08)
f2 = posx(-200.26, 340.57, 25.15, 119.56, 179.99, 114.9) 
g2 = posx(-120.99, 380.3, 25.11, 75.56, -180, 71.05)
h2 = posx(-160.38, 379.67, 25.53, 106.28, -179.99, 103.52)
i2 = posx(-200.7, 380.42, 25.7, 77.54, 180, 72.71)

au1 = posx(298.89, 300.09, 25+80, 34.19, 180, 31.53)
bu1 = posx(259.02, 300.14, 24.99+80, 66.41, -179.99, 63.46)
cu1 = posx(219.44, 300.6, 24.78+80, 83.43, -180, 80.33)
du1 = posx(299.4, 340.48, 25.25+80, 68.24, -180, 65.39)
eu1 = posx(259.48, 339.9, 25.15+80, 59.02, -179.99, 56.01)
fu1 = posx(219.92, 341.3, 24.92+80, 66.32, -180, 63.17)
gu1 = posx(299.46, 381.49, 25.24+80, 51.14, -179.99, 48.14)
hu1 = posx(259.43, 379.7, 25.3+80, 71.35, -179.99, 68.93)
iu1 = posx(219.01, 381.25, 25.11+80, 66.64, -180, 63.46)

au2 = posx(-120.46, 301.17, 24.71+80, 122.33, -180, 118.72)
bu2 = posx(-160.13, 301.76, 24.89+80, 96.88, 180, 93)
cu2 = posx(-200.39, 302.7, 24.94+80, 122.53, -180, 118.71)
du2 = posx(-120.49, 342.45, 24.86+80, 88.1, -180, 84.21)
eu2 = posx(-160.32, 340.45, 25.1+80, 116.46, -180, 112.08)
fu2 = posx(-200.26, 340.57, 25.15+80, 119.56, 179.99, 114.9) 
gu2 = posx(-120.99, 380.3, 25.11+80, 75.56, -180, 71.05)
hu2 = posx(-160.38, 379.67, 25.53+80, 106.28, -179.99, 103.52)
iu2 = posx(-200.7, 380.42, 25.7+80, 77.54, 180, 72.71)

move_home(1)
set_tool_digital_outputs([-1,2])

movel(au1, 100, 100)
movel(a1, 100, 100)
set_tool_digital_outputs([1,-2])
movel(au1, 100, 100)

movel(au2, 100, 100)
movel(a2, 100, 100)
set_tool_digital_outputs([-1,2])
movel(au2, 100, 100) 

movel(bu1, 100, 100)
movel(b1, 100, 100)
set_tool_digital_outputs([1,-2])
movel(bu1, 100, 100)

movel(bu2, 100, 100)
movel(b2, 100, 100)
set_tool_digital_outputs([-1,2])
movel(bu2, 100, 100)

movel(cu1, 100, 100)
movel(c1, 100, 100)
set_tool_digital_outputs([1,-2])
movel(cu1, 100, 100)

movel(cu2, 100, 100)
movel(c2, 100, 100)
set_tool_digital_outputs([-1,2])
movel(cu2, 100, 100)

movel(du1, 100, 100)
movel(d1, 100, 100)
set_tool_digital_outputs([1,-2])
movel(du1, 100, 100)

movel(du2, 100, 100)
movel(d2, 100, 100)
set_tool_digital_outputs([-1,2])
movel(du2, 100, 100)

movel(eu1, 100, 100)
movel(e1, 100, 100)
set_tool_digital_outputs([1,-2])
movel(eu1, 100, 100)

movel(eu2, 100, 100)
movel(e2, 100, 100)
set_tool_digital_outputs([-1,2])
movel(eu2, 100, 100)

movel(fu1,100, 100)
movel(f1, 100, 100)
set_tool_digital_outputs([1,-2])
movel(fu1,100, 100)

movel(fu2, 100, 100)
movel(f2, 100, 100)
set_tool_digital_outputs([-1,2])
movel(fu2, 100, 100)

movel(gu1, 100, 100)
movel(g1, 100, 100)
set_tool_digital_outputs([1,-2])
movel(gu1, 100, 100)

movel(gu2, 100, 100)
movel(g2, 100, 100)
set_tool_digital_outputs([-1,2])
movel(gu2, 100, 100)

movel(hu1, 100, 100)
movel(h1, 100, 100)
set_tool_digital_outputs([1,-2])
movel(hu1, 100, 100)

movel(hu2, 100, 100)
movel(h2, 100, 100)
set_tool_digital_outputs([-1,2])
movel(hu2, 100, 100)

movel(iu1, 100, 100)
movel(i1, 100, 100)
set_tool_digital_outputs([1,-2])
movel(iu1, 100, 100)

movel(iu2, 100, 100)
movel(i2, 100, 100)
set_tool_digital_outputs([-1,2])
movel(iu2, 100, 100)

move_home(1)